src/assets/icons/richtext-bold.svg

<svg width="16" height="16" viewBox="0 0 16 16" fill="none" xmlns="http://www.w3.org/2000/svg">
<g clip-path="url(#clip0_8874_15347)">
<path fill-rule="evenodd" clip-rule="evenodd" d="M3.3986 0.0136672C3.11181 0.0703835 2.83428 0.338024 2.75546 0.633887C2.72027 0.766031 2.72027 15.2337 2.75546 15.3659C2.79544 15.516 2.85458 15.6147 2.9817 15.7436C3.11687 15.8807 3.25406 15.9574 3.41887 15.9878C3.48356 15.9998 4.49563 16.0038 6.52259 16.0002C9.50189 15.9948 9.53243 15.9944 9.75268 15.9582C10.3088 15.8666 10.7199 15.7364 11.1847 15.5042C12.6072 14.794 13.5696 13.4214 13.7547 11.8391C13.7876 11.5581 13.788 11.0475 13.7556 10.7706C13.5983 9.42564 12.9075 8.25308 11.8076 7.46384C11.6341 7.33941 11.3147 7.14884 11.1421 7.06688L11.0114 7.00483L11.1568 6.83193C11.6525 6.24253 11.9814 5.50995 12.0992 4.73306C12.1408 4.45861 12.1406 3.84282 12.0989 3.57C11.9649 2.69387 11.5833 1.9086 10.989 1.28614C10.3503 0.617091 9.53348 0.192693 8.58107 0.0350128C8.41706 0.00785193 8.1877 0.00497848 5.93852 0.00186558C4.5525 -6.715e-05 3.44191 0.00509818 3.3986 0.0136672ZM4.44194 4.14339V6.58111L6.4046 6.57573C8.57744 6.56978 8.42387 6.57747 8.77776 6.45682C9.57909 6.18362 10.1996 5.48112 10.3682 4.6561C10.5385 3.82269 10.2782 2.97633 9.67342 2.39753C9.25364 1.9958 8.76603 1.77458 8.18735 1.72335C8.07002 1.71297 7.27675 1.70592 6.21646 1.70584L4.44194 1.70568V4.14339ZM4.44194 11.3011V14.2957L6.91772 14.2888C9.58068 14.2813 9.46712 14.2851 9.82479 14.193C10.6666 13.9764 11.3647 13.409 11.7623 12.6181C12.0497 12.0466 12.1396 11.3401 12.0084 10.6852C11.9524 10.4057 11.7957 10.012 11.6319 9.73987C11.4098 9.3707 11.005 8.96541 10.6421 8.74899C10.3862 8.59637 10.105 8.47714 9.8382 8.40808C9.47834 8.31491 9.6212 8.3196 6.93482 8.31285L4.44194 8.30657V11.3011Z" fill="currentColor"/>
</g>
<defs>
<clipPath id="clip0_8874_15347">
<rect width="16" height="16" fill="white"/>
</clipPath>
</defs>
</svg>

<svg xmlns="http://www.w3.org/2000/svg" width="16" height="16" fill="none">
  <g clip-path="url(#a)">
    <path fill="currentColor" fill-rule="evenodd" d="M3.399.014c-.287.056-.565.324-.644.62-.035.132-.035 14.6 0 14.732.04.15.1.249.227.378a.796.796 0 0 0 .437.244c.065.012 1.077.016 3.104.012 2.979-.005 3.01-.006 3.23-.042a4.682 4.682 0 0 0 1.432-.454 4.696 4.696 0 0 0 2.57-3.665 5.84 5.84 0 0 0 0-1.068 4.692 4.692 0 0 0-1.947-3.307 5.562 5.562 0 0 0-.666-.397l-.13-.062.145-.173c.495-.59.824-1.322.942-2.099.042-.274.042-.89 0-1.163a4.193 4.193 0 0 0-1.11-2.284C10.35.617 9.533.193 8.581.035 8.417.008 8.188.005 5.94.002 4.553 0 3.442.005 3.399.014Zm1.043 4.13V6.58l1.963-.005c2.172-.006 2.019.001 2.373-.12a2.435 2.435 0 0 0 .896-4.06 2.379 2.379 0 0 0-1.487-.673c-.117-.01-.91-.017-1.97-.017H4.441v2.437Zm0 7.157v2.995l2.476-.007c2.663-.008 2.55-.004 2.907-.096a3 3 0 0 0 1.937-1.575 3.052 3.052 0 0 0 .246-1.933 3.372 3.372 0 0 0-.376-.945 3.189 3.189 0 0 0-.99-.991 3.145 3.145 0 0 0-.804-.34c-.36-.094-.217-.09-2.903-.096l-2.493-.006V11.3Z" clip-rule="evenodd"/>
  </g>
  <defs>
    <clipPath id="a">
      <path fill="#fff" d="M0 0h16v16H0z"/>
    </clipPath>
  </defs>
</svg>
